images_sukapura_svg/cmd/32/togglemergecells.svg

<svg height="32" viewBox="0 0 32 32" width="32" xmlns="http://www.w3.org/2000/svg" xmlns:xlink="http://www.w3.org/1999/xlink"><linearGradient id="a" gradientTransform="translate(32 -5)" gradientUnits="userSpaceOnUse" x1="14" x2="13.79661" y1="22" y2="2.135593"><stop offset="0" stop-color="#0040dd"/><stop offset="1" stop-color="#0a84ff"/></linearGradient><filter id="b" color-interpolation-filters="sRGB" height="1.094553" width="1.097492" x="-.048746" y="-.047277"><feGaussianBlur stdDeviation=".36559322"/></filter><linearGradient id="c" gradientTransform="translate(-1)" gradientUnits="userSpaceOnUse" x1="8.146484" x2="8.146484" xlink:href="#a" y1="21.853516" y2="14.146484"/><linearGradient id="d" gradientUnits="userSpaceOnUse" x1="16" x2="16" xlink:href="#a" y1="22" y2="13"/><path d="m4 10.440678h18v18.559322h-18z" filter="url(#b)" opacity=".15" stroke-width="1.015418" transform="matrix(1.3333333 0 0 1.3200913 -1.333333 -8.782648)"/><path d="m4 4h24v24h-24z" fill="#fafafa"/><path d="m9 4v4h-5v1h5v2.251953 1.748047h-3.8105469-1.1894531v1 9h.2089844 1 3.7910156v2 3h1v-4.636719-.363281h.037109 4.962891v5h1v-5h5v5h1v-5h.013672 4.828125 1.158203v-1h-.158203-5.550781-12.291016-.2402344-5.5507812-.0332032v-8h.0136719 5.5605469.25 5 1 5 1 .300781 5.560547.138672v-1h-1.138672-4.824219-.037109v-4h6v-1h-6v-4h-1v4h-5v-4h-1v4h-5v-4zm1 5h5v4h-4.986328c-.000513.036707-.011487.07267-.013672.109375v-.109375-.337891zm6 0h5v4h-5z" fill="#bababa"/><path d="m3 3v1 5 6.191406 6.841797 5.966797c0 .554.446 1 1 1h24c.554 0 1-.446 1-1v-6-1.160156-5.699219-1-5.140625-5-1h-1-24zm1 1h5 1 5 1 5 1 6v4 1 4 1 .140625 7.699219.160156 1 5h-6-1-5-1-5-1-5v-5-10-4-1z" fill="#69696e"/><path d="m4 13v1h24v-1zm0 9v1h24v-1z" fill="url(#d)"/><path d="m7.4511719 12.996094c-.3776891.01229-.7484723.17219-1.015625.439453l-3.4355469 3.435547v2.257812l3.4355469 3.435547a1.0047099 1.0047099 0 0 0 .0039062.001953c.4182456.415027 1.0923483.547738 1.6367188.322266s.9254329-.795553.9277343-1.384766a1.0047099 1.0047099 0 0 0 0-.003906v-1.496094h3.4980468c.816177 0 1.503906-.687729 1.503906-1.503906v-1c0-.816177-.687729-1.503906-1.503906-1.503906h-3.4980468v-1.496094a1.0047099 1.0047099 0 0 0 0-.001953c-.0009018-.802485-.7466483-1.525739-1.5488281-1.501953a1.0047099 1.0047099 0 0 0 -.0039062 0z" fill="#fafafa" fill-opacity=".784314"/><path d="m7.484375 14a.50078285.50078285 0 0 0 -.3378906.146484l-3.5 3.5a.50078285.50078285 0 0 0 0 .707032l3.5 3.5a.50078285.50078285 0 0 0 .8535156-.353516v-2.5h4.501953c.277 0 .5-.223.5-.5v-1c0-.277-.223-.5-.5-.5h-4.501953v-2.5a.50078285.50078285 0 0 0 -.515625-.5z" fill="url(#c)"/><g transform="matrix(-1 0 0 1 32.005859 0)"><path d="m7.4511719 12.996094c-.3776891.01229-.7484723.17219-1.015625.439453l-3.4355469 3.435547v2.257812l3.4355469 3.435547a1.0047099 1.0047099 0 0 0 .00391.002c.4182456.415027 1.0923483.547738 1.6367188.322266s.9254329-.795553.9277343-1.384766a1.0047099 1.0047099 0 0 0 0-.0039v-1.496094h3.498047c.816177 0 1.503906-.687729 1.503906-1.503906v-1c0-.816177-.687729-1.503906-1.503906-1.503906h-3.4980508v-1.496147a1.0047099 1.0047099 0 0 0 0-.002c-.0009018-.802438-.7466483-1.525692-1.5488281-1.501906a1.0047099 1.0047099 0 0 0 -.00391 0z" fill="#fafafa" fill-opacity=".784314"/><path d="m7.484375 14a.50078285.50078285 0 0 0 -.3378906.146484l-3.5 3.5a.50078285.50078285 0 0 0 0 .707032l3.5 3.5a.50078285.50078285 0 0 0 .8535156-.353516v-2.5h4.501953c.277 0 .5-.223.5-.5v-1c0-.277-.223-.5-.5-.5h-4.501953v-2.5a.50078285.50078285 0 0 0 -.515625-.5z" fill="url(#c)"/></g></svg>

<?xml version="1.0" encoding="UTF-8" standalone="no"?>
<svg
   xmlns:dc="http://purl.org/dc/elements/1.1/"
   xmlns:cc="http://creativecommons.org/ns#"
   xmlns:rdf="http://www.w3.org/1999/02/22-rdf-syntax-ns#"
   xmlns:svg="http://www.w3.org/2000/svg"
   xmlns="http://www.w3.org/2000/svg"
   xmlns:xlink="http://www.w3.org/1999/xlink"
   xmlns:sodipodi="http://sodipodi.sourceforge.net/DTD/sodipodi-0.dtd"
   xmlns:inkscape="http://www.inkscape.org/namespaces/inkscape"
   viewBox="0 0 32 32"
   version="1.1"
   id="svg14"
   sodipodi:docname="togglemergecells.svg"
   inkscape:export-filename="/home/rizmut/Documents/Rizmut/Github/libreoffice-style-sukapura/images_sukapura/cmd/32/togglemergecells.png"
   inkscape:export-xdpi="96"
   inkscape:export-ydpi="96"
   inkscape:version="0.92.3 (2405546, 2018-03-11)"
   width="32"
   height="32">
  <metadata
     id="metadata20">
    <rdf:RDF>
      <cc:Work
         rdf:about="">
        <dc:format>image/svg+xml</dc:format>
        <dc:type
           rdf:resource="http://purl.org/dc/dcmitype/StillImage" />
        <dc:title></dc:title>
      </cc:Work>
    </rdf:RDF>
  </metadata>
  <defs
     id="defs18">
    <filter
       style="color-interpolation-filters:sRGB"
       id="b"
       height="1.094553"
       width="1.097492"
       x="-0.048746001"
       y="-0.047277">
      <feGaussianBlur
         stdDeviation=".36559322"
         id="feGaussianBlur957" />
    </filter>
    <linearGradient
       gradientTransform="translate(-41,-2)"
       id="a"
       gradientUnits="userSpaceOnUse"
       x1="12"
       x2="12"
       y1="3"
       y2="21">
      <stop
         offset="0"
         stop-color="#efefef"
         id="stop948" />
      <stop
         offset=".33333334"
         stop-color="#fff"
         id="stop950" />
      <stop
         offset=".8888889"
         stop-color="#fff"
         id="stop952" />
      <stop
         offset="1"
         stop-color="#f5f5f5"
         id="stop954" />
    </linearGradient>
    <linearGradient
       gradientTransform="translate(32,-5)"
       id="a-3"
       gradientUnits="userSpaceOnUse"
       x1="14"
       x2="13.79661"
       y1="22"
       y2="2.1355929">
      <stop
         offset="0"
         stop-color="#0040dd"
         id="stop1604" />
      <stop
         offset="1"
         stop-color="#0a84ff"
         id="stop1606" />
    </linearGradient>
    <filter
       style="color-interpolation-filters:sRGB"
       id="b-6"
       height="1.094553"
       width="1.097492"
       x="-0.048746001"
       y="-0.047277">
      <feGaussianBlur
         stdDeviation=".36559322"
         id="feGaussianBlur957-7" />
    </filter>
    <linearGradient
       inkscape:collect="always"
       xlink:href="#a-3"
       id="linearGradient896"
       x1="8.1464844"
       y1="21.853516"
       x2="8.1464844"
       y2="14.146484"
       gradientUnits="userSpaceOnUse"
       gradientTransform="translate(-1)" />
    <linearGradient
       inkscape:collect="always"
       xlink:href="#a-3"
       id="linearGradient959"
       x1="16"
       y1="22"
       x2="16"
       y2="13"
       gradientUnits="userSpaceOnUse" />
    <linearGradient
       inkscape:collect="always"
       xlink:href="#a-3"
       id="linearGradient1035"
       gradientUnits="userSpaceOnUse"
       gradientTransform="translate(-1)"
       x1="8.1464844"
       y1="21.853516"
       x2="8.1464844"
       y2="14.146484" />
  </defs>
  <sodipodi:namedview
     pagecolor="#ffffff"
     bordercolor="#666666"
     borderopacity="1"
     objecttolerance="10"
     gridtolerance="10"
     guidetolerance="10"
     inkscape:pageopacity="0"
     inkscape:pageshadow="2"
     inkscape:window-width="1366"
     inkscape:window-height="685"
     id="namedview16"
     showgrid="true"
     inkscape:zoom="16"
     inkscape:cx="8.5313803"
     inkscape:cy="10.697374"
     inkscape:window-x="0"
     inkscape:window-y="0"
     inkscape:window-maximized="1"
     inkscape:current-layer="g990"
     inkscape:pagecheckerboard="true"
     inkscape:snap-smooth-nodes="true"
     inkscape:snap-global="true">
    <inkscape:grid
       type="xygrid"
       id="grid827"
       spacingx="0.5"
       spacingy="0.5"
       empspacing="2" />
  </sodipodi:namedview>
  <g
     id="g990">
    <path
       transform="matrix(1.3333333,0,0,1.3200913,-1.3333333,-8.7826482)"
       id="path960"
       d="M 4,10.440678 H 22 V 29 H 4 Z"
       style="opacity:0.15;stroke-width:1.01541805;filter:url(#b-6)"
       inkscape:connector-curvature="0" />
    <rect
       y="4"
       x="4"
       height="24"
       width="24"
       id="rect945"
       style="opacity:1;fill:#fafafa;fill-opacity:1;stroke:none;stroke-width:2.37635422;stroke-linecap:round;stroke-linejoin:round;stroke-miterlimit:4;stroke-dasharray:none;stroke-opacity:1" />
    <path
       id="path4-8"
       d="M 9 4 L 9 8 L 4 8 L 4 9 L 9 9 L 9 11.251953 L 9 13 L 5.1894531 13 L 4 13 L 4 14 L 4 23 L 4.2089844 23 L 5.2089844 23 L 9 23 L 9 25 L 9 28 L 10 28 L 10 23.363281 L 10 23 L 10.037109 23 L 15 23 L 15 28 L 16 28 L 16 23 L 21 23 L 21 28 L 22 28 L 22 23 L 22.013672 23 L 26.841797 23 L 28 23 L 28 22 L 27.841797 22 L 22.291016 22 L 10 22 L 9.7597656 22 L 4.2089844 22 L 4.1757812 22 L 4.1757812 14 L 4.1894531 14 L 9.75 14 L 10 14 L 15 14 L 16 14 L 21 14 L 22 14 L 22.300781 14 L 27.861328 14 L 28 14 L 28 13 L 26.861328 13 L 22.037109 13 L 22 13 L 22 9 L 28 9 L 28 8 L 22 8 L 22 4 L 21 4 L 21 8 L 16 8 L 16 4 L 15 4 L 15 8 L 10 8 L 10 4 L 9 4 z M 10 9 L 15 9 L 15 13 L 10.013672 13 C 10.013159 13.036707 10.002185 13.07267 10 13.109375 L 10 13 L 10 12.662109 L 10 9 z M 16 9 L 21 9 L 21 13 L 16 13 L 16 9 z "
       style="fill:#bababa;fill-opacity:1" />
    <path
       id="path916"
       d="M 3 3 L 3 4 L 3 9 L 3 15.191406 L 3 22.033203 L 3 28 C 3 28.554 3.446 29 4 29 L 28 29 C 28.554 29 29 28.554 29 28 L 29 22 L 29 20.839844 L 29 15.140625 L 29 14.140625 L 29 9 L 29 4 L 29 3 L 28 3 L 4 3 L 3 3 z M 4 4 L 9 4 L 10 4 L 15 4 L 16 4 L 21 4 L 22 4 L 28 4 L 28 8 L 28 9 L 28 13 L 28 14 L 28 14.140625 L 28 21.839844 L 28 22 L 28 23 L 28 28 L 22 28 L 21 28 L 16 28 L 15 28 L 10 28 L 9 28 L 4 28 L 4 23 L 4 13 L 4 9 L 4 8 L 4 4 z "
       style="fill:#69696e;fill-opacity:1" />
    <path
       id="rect947"
       d="M 4 13 L 4 14 L 28 14 L 28 13 L 4 13 z M 4 22 L 4 23 L 28 23 L 28 22 L 4 22 z "
       style="opacity:1;fill:url(#linearGradient959);fill-opacity:1;stroke:none;stroke-width:2;stroke-linecap:round;stroke-linejoin:round;stroke-miterlimit:4;stroke-dasharray:none;stroke-opacity:1" />
    <g
       id="g1027">
      <path
         id="path1017"
         d="M 7.4511719 12.996094 C 7.0734828 13.008384 6.7026996 13.168284 6.4355469 13.435547 L 3 16.871094 L 3 19.128906 L 6.4355469 22.564453 A 1.0047099 1.0047099 0 0 0 6.4394531 22.566406 C 6.8576987 22.981433 7.5318014 23.114144 8.0761719 22.888672 C 8.6205424 22.6632 9.0016048 22.093119 9.0039062 21.503906 A 1.0047099 1.0047099 0 0 0 9.0039062 21.5 L 9.0039062 20.003906 L 12.501953 20.003906 C 13.31813 20.003906 14.005859 19.316177 14.005859 18.5 L 14.005859 17.5 C 14.005859 16.683823 13.31813 15.996094 12.501953 15.996094 L 9.0039062 15.996094 L 9.0039062 14.5 A 1.0047099 1.0047099 0 0 0 9.0039062 14.498047 C 9.0030044 13.695562 8.2572579 12.972308 7.4550781 12.996094 A 1.0047099 1.0047099 0 0 0 7.4511719 12.996094 z "
         style="fill:#fafafa;fill-opacity:0.78431373;stroke:none;stroke-width:1.99996591;stroke-linecap:round;stroke-linejoin:round" />
      <path
         style="fill:url(#linearGradient896);fill-opacity:1;stroke:none;stroke-width:1.99996591;stroke-linecap:round;stroke-linejoin:round"
         d="m 7.484375,14 a 0.50078285,0.50078285 0 0 0 -0.3378906,0.146484 l -3.5,3.5 a 0.50078285,0.50078285 0 0 0 0,0.707032 l 3.5,3.5 A 0.50078285,0.50078285 0 0 0 8,21.5 V 19 h 4.501953 c 0.277,0 0.5,-0.223 0.5,-0.5 v -1 c 0,-0.277 -0.223,-0.5 -0.5,-0.5 H 8 V 14.5 A 0.50078285,0.50078285 0 0 0 7.484375,14 Z"
         id="path8"
         inkscape:connector-curvature="0" />
    </g>
    <g
       id="g1033"
       transform="matrix(-1,0,0,1,32.005859,0)">
      <path
         style="fill:#fafafa;fill-opacity:0.78431373;stroke:none;stroke-width:1.99996591;stroke-linecap:round;stroke-linejoin:round"
         d="m 7.4511719,12.996094 c -0.3776891,0.01229 -0.7484723,0.17219 -1.015625,0.439453 L 3,16.871094 v 2.257812 l 3.4355469,3.435547 a 1.0047099,1.0047099 0 0 0 0.00391,0.002 c 0.4182456,0.415027 1.0923483,0.547738 1.6367188,0.322266 0.5443705,-0.225472 0.9254329,-0.795553 0.9277343,-1.384766 a 1.0047099,1.0047099 0 0 0 0,-0.0039 v -1.496094 h 3.498047 c 0.816177,0 1.503906,-0.687729 1.503906,-1.503906 v -1 c 0,-0.816177 -0.687729,-1.503906 -1.503906,-1.503906 H 9.0039062 V 14.5 a 1.0047099,1.0047099 0 0 0 0,-0.002 C 9.0030044,13.695562 8.2572579,12.972308 7.4550781,12.996094 a 1.0047099,1.0047099 0 0 0 -0.00391,0 z"
         id="path1029"
         inkscape:connector-curvature="0" />
      <path
         inkscape:connector-curvature="0"
         id="path1031"
         d="m 7.484375,14 a 0.50078285,0.50078285 0 0 0 -0.3378906,0.146484 l -3.5,3.5 a 0.50078285,0.50078285 0 0 0 0,0.707032 l 3.5,3.5 A 0.50078285,0.50078285 0 0 0 8,21.5 V 19 h 4.501953 c 0.277,0 0.5,-0.223 0.5,-0.5 v -1 c 0,-0.277 -0.223,-0.5 -0.5,-0.5 H 8 V 14.5 A 0.50078285,0.50078285 0 0 0 7.484375,14 Z"
         style="fill:url(#linearGradient1035);fill-opacity:1;stroke:none;stroke-width:1.99996591;stroke-linecap:round;stroke-linejoin:round" />
    </g>
  </g>
</svg>
